!!!!SEGMENT: pl-kk--kk-i-6--062_anonim--deo-gratias.krn
!!!cenid: 16xx:1058
!!!COM: Anonim
!!!COM-rismID: pe30004985
!!!CDT:
!!!CNT:
!!!OTL: Deo gratias
!!!PDT:
!!!AGN:
!!!YEC: Copyright 2022 Narodowy Instytut Fryderyka Chopina (https://polishscores.org)
!!!YEM: License CC-BY-4.0 (https://creativecommons.org/licenses/by/4.0)
!!!SMS-siglum: PL-Kk
!!!SMS-shelfmark: Kk.I.6
!!!SMS-shelfwork: 062 W
!!!SMS-variant:
!!!SMS-altvar:
!!!NIFC-rismSourceID: 1001135513
!!!NIFC-rismChildID: 1001136580
!!!NIFC-islandoraID: pl-kk:1634
!!!URL-pdf-islandora: https://repozytorium.nifc.pl/islandora/object/pl-kk%3A1634/datastream/PDF/view
!!!URL-scan: https://polish.musicsources.pl/pl/lokalizacje/galeria/rekopisy/6133 @EN{Scan on Polish Music Sources Website} @PL{Skany w portalu Dziedzictwo Muzyki Polskiej w otwartym dostępie}
!!!IIIF:
!!!ONB-nifc: UWAGA: C (skan 0088, s. 172), T (skan 0199, s. 203), B (skan 0312, s. 207) Sabbatho | de B.V. | Maria
!!!AIN: 1 bass 2 tenor
!!!key: d:dor
**kern	**text	**kern	**text	**kern	**text
*part3	*	*part2	*	*part1	*
*staff3	*	*staff2	*	*staff1	*
*I"Baſsus.	*	*I"Tenor.	*	*I"Canto.	*
*I'B	*	*I'T	*	*I'T	*
*Ibass	*	*Itenor	*	*Itenor	*
*ICvox	*	*ICvox	*	*ICvox	*
*clefF4	*	*clefC4	*	*clefC4	*
*k[b-]	*	*k[b-]	*	*k[b-]	*
*d:dor	*	*d:dor	*	*d:dor	*
*M2/2	*	*M2/2	*	*M2/2	*
*met(C|) 	*	*met(C|) 	*	*met(C|) 	*
=1-	=1-	=1-	=1-	=1-	=1-
!!LO:TX:t=P:problem:pełne nazwy głosów zaczerpięte z okładki
!!LO:TX:t=P:problem:2\middle:global
!LO:TX:t=Sabbatho\nde B. V.\nMaria.	!	!LO:TX:t=Sabbatho\nde B. V.\nMaria.	!	!LO:TX:t=Sabbatho\nde B. V.\nMaria.	!
1D	De-	1A	De-	1D	De-
=2-	=2-	=2-	=2-	=2-	=2-
1BB-	-o	1B-	-o	0F	.
=3-	=3-	=3-	=3-	=3-	=3-
2BB-/	gra-	2B-\	gra-	.	.
2D/	-ti-	2A/	-ti-	.	.
=4-	=4-	=4-	=4-	=4-	=4-
*	*	*	*	*lig	*
2C/	-as	2c\	-as	1G	.
2BB-/	.	2G/	.	.	.
=5-	=5-	=5-	=5-	=5-	=5-
2AA/	.	2c\	.	1A	.
2FF/	.	2A/	.	.	.
*	*	*custos:B	*	*Xlig	*
=6-	=6-	=6-	=6-	=6-	=6-
*	*	*	*ij	*lig	*
!	!	!LO:LB:g=original	!	!	!
1GG	.	2B-\	De-	1G	.
.	.	1G/	-o	.	.
!LO:LB:g=original	!	!	!	!	!
*custos:C	*	*	*	*	*
=7-	=7-	=7-	=7-	=7-	=7-
1C	.	.	.	1E	.
.	.	2G/	gra-	.	.
*	*	*	*	*Xlig	*
=8-	=8-	=8-	=8-	=8-	=8-
*	*	*	*	*lig	*
2FF/	.	1A	-ti-	1F	.
2F\	.	.	.	.	.
=9-	=9-	=9-	=9-	=9-	=9-
1G	.	1G	-as	1E	.
*	*	*	*	*Xlig	*
=10-	=10-	=10-	=10-	=10-	=10-
1F	.	2B-\	.	1D	-o
.	.	1A\	.	.	.
*	*	*	*	*custos:F	*
=11-	=11-	=11-	=11-	=11-	=11-
*	*	*	*	*lig	*
!	!	!	!	!LO:LB:g=original	!
2F\	.	.	.	1F	.
2FF/	.	2A/	.	.	.
=12-	=12-	=12-	=12-	=12-	=12-
1GG	.	1G	.	1D	.
*	*	*	*	*Xlig	*
=13-	=13-	=13-	=13-	=13-	=13-
1AA	.	1E	.	1C	.
=14-	=14-	=14-	=14-	=14-	=14-
*	*	*	*	*lig	*
1BB-	.	2D/	.	1D	gra-
.	.	2B-\	.	.	.
=15-	=15-	=15-	=15-	=15-	=15-
2FF/	.	2A/	.	1C	.
2AA/	.	2F/	.	.	.
*	*	*	*	*Xlig	*
=16-	=16-	=16-	=16-	=16-	=16-
1GG	.	1G	.	1D	.
*	*	*custos:C	*	*	*
=17-	=17-	=17-	=17-	=17-	=17-
*	*	*	*	*lig	*
!	!	!LO:LB:g=original	!	!	!
1FF	.	2C/	.	1F	.
.	.	1c\	De-	.	.
=18-	=18-	=18-	=18-	=18-	=18-
1C	.	.	.	1E	.
.	.	2c\	-o	.	.
*custos:D	*	*	*	*Xlig	*
=19-	=19-	=19-	=19-	=19-	=19-
*lig	*	*	*	*	*
!LO:LB:g=original	!	!	!	!	!
1D	.	1A	gra-	1F	.
=20-	=20-	=20-	=20-	=20-	=20-
*	*	*	*	*lig	*
1GG	.	1B-	.	1G	.
*Xlig	*	*	*	*	*
=21-	=21-	=21-	=21-	=21-	=21-
*lig	*	*	*	*	*
1C	.	1G	.	1E	.
*	*	*	*	*Xlig	*
=22-	=22-	=22-	=22-	=22-	=22-
1D	.	2F/	.	1F	.
.	.	2D/	.	.	.
*Xlig	*	*	*	*	*
=23-	=23-	=23-	=23-	=23-	=23-
*	*	*	*	*lig	*
1AA	.	1A	.	1E	-ti-
=24-	=24-	=24-	=24-	=24-	=24-
0D	.	0A	-ti-	1D	.
*	*	*	*	*Xlig	*
=25-	=25-	=25-	=25-	=25-	=25-
.	.	.	.	[1Dl;;	-as.
=26-	=26-	=26-	=26-	=26-	=26-
0GG	.	0B-X	.	1D_	.
=27-	=27-	=27-	=27-	=27-	=27-
.	.	.	.	1D_	.
=28-	=28-	=28-	=28-	=28-	=28-
!LO:N:vis=0	!	!LO:N:vis=0	!	!	!
1D;;	.	1A;;	-as	1D]	.
==	==	==	==	==	==
*-	*-	*-	*-	*-	*-
!!!system-decoration: [(s1,s2,s3)]
!!!RDF**kern: > = above
!!!RDF**kern: < = below
!!!RDF**kern: l = terminal long
!!!ENC: Katarzyna Serwa
!!!END: 2021-10-28
!!!ENC: Andrzej Gręziak
!!!END: 2021-10-26
